assets/icons/24px/stroke/tray-and-arrow-up-24px.svg

<svg width="24" height="24" viewBox="0 0 24 24" fill="none" xmlns="http://www.w3.org/2000/svg">
<path fill-rule="evenodd" clip-rule="evenodd" d="M6.27147 8.38624C5.89315 7.98388 5.91264 7.35101 6.315 6.9727L11.315 2.27146C11.6999 1.90951 12.3001 1.90951 12.685 2.27146L17.685 6.9727C18.0874 7.35101 18.1069 7.98388 17.7285 8.38624C17.3502 8.7886 16.7174 8.80809 16.315 8.42977L13 5.31286V16.5C13 17.0523 12.5523 17.5 12 17.5C11.4477 17.5 11 17.0523 11 16.5V5.31286L7.68501 8.42977C7.28265 8.80809 6.64978 8.7886 6.27147 8.38624Z" fill="white"/>
<path fill-rule="evenodd" clip-rule="evenodd" d="M3 13C3.55229 13 4 13.4477 4 14V17C4 17.9711 4.00213 18.5988 4.06431 19.0613C4.12263 19.495 4.21677 19.631 4.2929 19.7071C4.36902 19.7832 4.50497 19.8774 4.93871 19.9357C5.40121 19.9979 6.02893 20 7 20H17C17.9711 20 18.5988 19.9979 19.0613 19.9357C19.495 19.8774 19.631 19.7832 19.7071 19.7071C19.7832 19.631 19.8774 19.495 19.9357 19.0613C19.9979 18.5988 20 17.9711 20 17V14C20 13.4477 20.4477 13 21 13C21.5523 13 22 13.4477 22 14L22 17.0659C22.0001 17.9523 22.0001 18.7161 21.9179 19.3278C21.8297 19.9833 21.631 20.6117 21.1213 21.1213C20.6117 21.631 19.9833 21.8297 19.3278 21.9179C18.7161 22.0001 17.9523 22.0001 17.0658 22H6.93417C6.04769 22.0001 5.28387 22.0001 4.67221 21.9179C4.0167 21.8297 3.38835 21.631 2.87868 21.1213C2.36902 20.6117 2.17028 19.9833 2.08215 19.3278C1.99991 18.7161 1.99995 17.9523 2 17.0658C2 17.044 2 17.022 2 17V14C2 13.4477 2.44772 13 3 13Z" fill="white"/>
</svg>

<svg width="24" height="24" fill="none" xmlns="http://www.w3.org/2000/svg"><path fill-rule="evenodd" clip-rule="evenodd" d="M6.271 8.386a1 1 0 0 1 .044-1.413l5-4.702a1 1 0 0 1 1.37 0l5 4.702a1 1 0 1 1-1.37 1.457L13 5.313V16.5a1 1 0 1 1-2 0V5.313L7.685 8.43a1 1 0 0 1-1.414-.044z" fill="#fff"/><path fill-rule="evenodd" clip-rule="evenodd" d="M3 13a1 1 0 0 1 1 1v3c0 .971.002 1.599.064 2.061.059.434.153.57.229.646.076.076.212.17.646.229C5.4 19.998 6.029 20 7 20h10c.971 0 1.599-.002 2.061-.064.434-.059.57-.153.646-.229.076-.076.17-.212.229-.646.062-.462.064-1.09.064-2.061v-3a1 1 0 1 1 2 0v3.066c0 .886 0 1.65-.082 2.262-.088.655-.287 1.284-.797 1.793-.51.51-1.138.709-1.793.797-.612.082-1.376.082-2.262.082H6.934c-.886 0-1.65 0-2.262-.082-.655-.088-1.284-.287-1.793-.797-.51-.51-.709-1.138-.797-1.793C2 18.716 2 17.952 2 17.066V14a1 1 0 0 1 1-1z" fill="#fff"/></svg>
